X:1
T:A' Willie, We Have Miss'd You
M:C
L:1/8
R:Strathspey
S:Ryan's Mammoth Collection (1883)
Z:AK/Fiddler's Companion
K:D
d' | (b<c) (b>.a) (b<e) (e>.d') | (b<c) (b>.a) (d'<d(d<.d') | (b<e) b>a b>fg>e | d>BA>a (f<d) d>d' |
(b<e) a>a (b<e) e>d' | (b<e) b>a (d'<d) d>d' | (b<e) b>a b>fg>e | d>BA>a (f<d)d ||
G | (E/G/e) (G>.e) (B<E) E>.G | (E/B/e) G>.e (d<D) D>G | (E/B/e) G>e B>eg>e | d>BA>B (G<E) E>G |
(E/B/e) G>e (B<E) E>G | (E/B/e) G>e (d<D) D>G | (E/B/e) G>e B>eg>b | (d'/c'/b/a/) d'>a (f<d)d ||

